X: 4422
T: Bonney Miller, The
R: three-two
M: 3/2
K: Bminor
|:G2B2- B2g2 f4|G2B2 B2e2 c2A2|G2B2- B2g2 f4|e2A2- A2e2 c2A2:|
|:f2a2 afd2 g2e2|fga2 f2d2 e2c2|fga2 f2d2 g4|e2A2- A2e2 cBA2:|
|:d2B2 f2B2 a4|f2B2- B2e2 c2A2|d2B2 f2B2 a2B2|e2A2- A2e2 c2F2:|

